src/images/arqliteIcons/MarketIcon.svg

<svg width="37" height="23" viewBox="0 0 37 23" fill="none" xmlns="http://www.w3.org/2000/svg">
<path d="M0.939096 20.4393C0.353309 21.0251 0.353309 21.9749 0.939096 22.5607C1.52488 23.1464 2.47463 23.1464 3.06042 22.5607L0.939096 20.4393ZM36.9998 2C36.9998 1.17157 36.3282 0.5 35.4998 0.5H21.9998C21.1713 0.5 20.4998 1.17157 20.4998 2C20.4998 2.82843 21.1713 3.5 21.9998 3.5H33.9998V15.5C33.9998 16.3284 34.6713 17 35.4998 17C36.3282 17 36.9998 16.3284 36.9998 15.5V2ZM19.7926 16.2929L20.8533 15.2322L19.7926 16.2929ZM21.2069 16.2929L22.2675 17.3536L21.2069 16.2929ZM3.06042 22.5607L13.8533 11.7678L11.732 9.64645L0.939096 20.4393L3.06042 22.5607ZM13.1462 11.7678L18.732 17.3536L20.8533 15.2322L15.2675 9.64645L13.1462 11.7678ZM22.2675 17.3536L36.5604 3.06066L34.4391 0.93934L20.1462 15.2322L22.2675 17.3536ZM18.732 17.3536C19.7083 18.3299 21.2912 18.3299 22.2675 17.3536L20.1462 15.2322C20.3415 15.037 20.658 15.037 20.8533 15.2322L18.732 17.3536ZM13.8533 11.7678C13.658 11.963 13.3415 11.963 13.1462 11.7678L15.2675 9.64645C14.2912 8.67013 12.7083 8.67014 11.732 9.64645L13.8533 11.7678Z" fill="#0091A6"/>
</svg>

<svg xmlns="http://www.w3.org/2000/svg" width="37" height="23" fill="none" xmlns:v="https://vecta.io/nano"><path d="M.939 20.439a1.5 1.5 0 1 0 2.121 2.121L.939 20.439zM37 2A1.5 1.5 0 0 0 35.5.5H22a1.5 1.5 0 1 0 0 3h12v12a1.5 1.5 0 1 0 3 0V2zM19.793 16.293l1.061-1.061-1.061 1.061zm1.414 0l1.061 1.061-1.061-1.061zM3.06 22.561l10.793-10.793-2.121-2.121L.939 20.439l2.121 2.121zm10.086-10.793l5.586 5.586 2.121-2.121-5.586-5.586-2.121 2.121zm9.121 5.586L36.56 3.061 34.439.939 20.146 15.232l2.121 2.121zm-3.535 0a2.5 2.5 0 0 0 3.535 0l-2.121-2.121a.5.5 0 0 1 .707 0l-2.121 2.121zm-4.879-5.586a.5.5 0 0 1-.707 0l2.121-2.121a2.5 2.5 0 0 0-3.536 0l2.121 2.121z" fill="#0091a6"/></svg>
